Catalina-dark/actions/16/debug-step-instruction.svg

<?xml version="1.0" encoding="UTF-8" standalone="no"?>
<svg
   xmlns:dc="http://purl.org/dc/elements/1.1/"
   xmlns:cc="http://creativecommons.org/ns#"
   xmlns:rdf="http://www.w3.org/1999/02/22-rdf-syntax-ns#"
   xmlns:svg="http://www.w3.org/2000/svg"
   xmlns="http://www.w3.org/2000/svg"
   xmlns:sodipodi="http://sodipodi.sourceforge.net/DTD/sodipodi-0.dtd"
   xmlns:inkscape="http://www.inkscape.org/namespaces/inkscape"
   width="16"
   height="16"
   viewBox="0 0 16 16"
   version="1.1"
   id="svg7"
   sodipodi:docname="debug-step-instruction.svg"
   inkscape:version="0.92.4 5da689c313, 2019-01-14">
  <metadata
     id="metadata11">
    <rdf:RDF>
      <cc:Work
         rdf:about="">
        <dc:format>image/svg+xml</dc:format>
        <dc:type
           rdf:resource="http://purl.org/dc/dcmitype/StillImage" />
      </cc:Work>
    </rdf:RDF>
  </metadata>
  <sodipodi:namedview
     pagecolor="#ffffff"
     bordercolor="#666666"
     borderopacity="1"
     objecttolerance="10"
     gridtolerance="10"
     guidetolerance="10"
     inkscape:pageopacity="0"
     inkscape:pageshadow="2"
     inkscape:window-width="715"
     inkscape:window-height="480"
     id="namedview9"
     showgrid="false"
     inkscape:zoom="14.75"
     inkscape:cx="-0.54237288"
     inkscape:cy="8"
     inkscape:window-x="0"
     inkscape:window-y="26"
     inkscape:window-maximized="0"
     inkscape:current-layer="svg7" />
  <defs
     id="defs3">
    <style
       id="current-color-scheme"
       type="text/css">
   .ColorScheme-Text { color:#5c616c; } .ColorScheme-Highlight { color:#5294e2; }
  </style>
  </defs>
  <path
     style="fill:#f1f6f8;fill-opacity:0.8509804"
     class="ColorScheme-Text"
     d="M 3.0097656 1 C 0.76106563 1 1.0117188 3 1.0117188 3 L 1.0117188 15 L 15.003906 15 L 15.003906 3 C 15.003906 1 13.003906 1 13.003906 1 L 11.005859 1 L 11.005859 5 L 13.003906 5 L 13.003906 13 L 3.0097656 13 L 3.0097656 5 L 5.0097656 5 L 5.0097656 1 L 3.0097656 1 z M 6.0078125 1 L 8.0078125 4 L 10.005859 1 L 6.0078125 1 z M 6.4355469 6 C 5.3700469 6 4.9238281 6.3522562 4.9238281 7.2539062 C 4.9238281 7.2539062 4.8993781 7.84134 4.8925781 8 C 4.8463781 8.36892 4.7171831 8.6777344 4.3144531 8.6777344 L 4.0097656 8.6777344 L 4.0097656 9.3222656 L 4.3144531 9.3222656 C 4.9030031 9.3222656 4.9238281 9.9664975 4.9238281 10.523438 C 4.9188281 10.697368 4.9374062 10.89186 4.9414062 11 C 5.0247063 11.71164 5.4783069 12 6.4355469 12 L 6.4355469 11.408203 C 5.9860369 11.408203 5.829155 11.28989 5.765625 11 C 5.731925 10.88403 5.7284437 10.485582 5.7148438 10.294922 C 5.7148438 9.8794619 5.5928306 9.2602063 4.9941406 9.0039062 C 5.4672106 8.8013362 5.6362631 8.37562 5.6894531 8 C 5.7133531 7.89589 5.7080438 7.7776956 5.7148438 7.6972656 C 5.7148438 6.8309556 5.7252669 6.5917969 6.4355469 6.5917969 L 6.4355469 6 z M 7.5078125 6 L 7.5078125 7 L 8.5058594 7 L 8.5058594 6 L 7.5078125 6 z M 9.578125 6 L 9.578125 6.5917969 C 10.288405 6.5917969 10.298828 6.8309256 10.298828 7.6972656 C 10.305828 7.7776656 10.300819 7.89589 10.324219 8 C 10.377419 8.37563 10.548414 8.8013462 11.021484 9.0039062 C 10.422794 9.2602562 10.298828 9.8794719 10.298828 10.294922 C 10.285128 10.485582 10.281647 10.88403 10.248047 11 C 10.184547 11.28989 10.027635 11.408203 9.578125 11.408203 L 9.578125 12 C 10.535375 12 10.991019 11.71164 11.074219 11 C 11.078219 10.89186 11.096797 10.697367 11.091797 10.523438 C 11.091797 9.9665275 11.110699 9.3222656 11.699219 9.3222656 L 12.003906 9.3222656 L 12.003906 8.6777344 L 11.699219 8.6777344 C 11.296489 8.6777344 11.169227 8.36892 11.123047 8 C 11.116047 7.84134 11.091797 7.2539062 11.091797 7.2539062 C 11.091797 6.3522463 10.643605 6 9.578125 6 z M 7.5078125 8 L 7.5078125 12 L 8.5058594 12 L 8.5058594 8 L 7.5078125 8 z"
     id="path5" />
</svg>

<svg width="16" height="16" version="1.1" viewBox="0 0 16 16" xmlns="http://www.w3.org/2000/svg">
<defs>
<style id="current-color-scheme" type="text/css">.ColorScheme-Text { color:#5c616c; } .ColorScheme-Highlight { color:#5294e2; }</style>
</defs>
<path class="ColorScheme-Text" d="m3.0098 1c-2.2487 0-1.998 2-1.998 2v12h13.992v-12c0-2-2-2-2-2h-1.998v4h1.998v8h-9.9941v-8h2v-4h-2zm2.998 0 2 3 1.998-3h-3.998zm0.42773 5c-1.0655 0-1.5117 0.35226-1.5117 1.2539 0 0-0.02445 0.58743-0.03125 0.74609-0.0462 0.36892-0.1754 0.67773-0.57812 0.67773h-0.30469v0.64453h0.30469c0.58855 0 0.60938 0.64423 0.60938 1.2012-5e-3 0.17393 0.013578 0.36842 0.017578 0.47656 0.0833 0.71164 0.5369 1 1.4941 1v-0.5918c-0.44951 0-0.60639-0.11831-0.66992-0.4082-0.0337-0.11597-0.037181-0.51442-0.050781-0.70508 0-0.41546-0.12201-1.0347-0.7207-1.291 0.47307-0.20257 0.64212-0.62829 0.69531-1.0039 0.0239-0.10411 0.018591-0.2223 0.025391-0.30273 0-0.86631 0.010423-1.1055 0.7207-1.1055v-0.5918zm1.0723 0v1h0.99805v-1h-0.99805zm2.0703 0v0.5918c0.71028 0 0.7207 0.23913 0.7207 1.1055 7e-3 0.0804 0.001991 0.19862 0.025391 0.30273 0.0532 0.37563 0.2242 0.80135 0.69726 1.0039-0.59869 0.25635-0.72266 0.87557-0.72266 1.291-0.0137 0.19066-0.017181 0.58911-0.050781 0.70508-0.0635 0.28989-0.22041 0.4082-0.66992 0.4082v0.5918c0.95725 0 1.4129-0.28836 1.4961-1 4e-3 -0.10814 0.022578-0.30263 0.017578-0.47656 0-0.55691 0.018902-1.2012 0.60742-1.2012h0.30469v-0.64453h-0.30469c-0.40273 0-0.52999-0.30881-0.57617-0.67773-7e-3 -0.15866-0.03125-0.74609-0.03125-0.74609 0-0.90166-0.44819-1.2539-1.5137-1.2539zm-2.0703 2v4h0.99805v-4h-0.99805z" fill="#dedede" fill-opacity=".85098"/>
</svg>
